assets/cards-tab/Asset/rupay.svg

<svg width="45" height="22" viewBox="0 0 45 22" fill="none" xmlns="http://www.w3.org/2000/svg">
<path d="M42.4613 5.88215L45 10.9979L39.663 16.1162L42.4613 5.88215Z" fill="#008C44"/>
<path d="M40.7032 5.88215L43.2382 10.9979L37.9048 16.1162L40.7032 5.88215Z" fill="#F47920"/>
<path d="M0 14.2546L2.53127 4.99996H6.57811C7.84286 4.99996 8.68773 5.20315 9.11756 5.62186C9.5443 6.0372 9.62651 6.71517 9.36927 7.66809C9.21369 8.22943 8.97723 8.70062 8.65237 9.07291C8.33016 9.44587 7.90518 9.74078 7.38187 9.95765C7.82585 10.066 8.10828 10.281 8.23491 10.6035C8.36087 10.926 8.34629 11.3963 8.19336 12.0128L7.88552 13.3055L7.88463 13.3405C7.79579 13.7025 7.82209 13.8963 7.96684 13.912L7.87358 14.2546H5.13591C5.14519 14.0369 5.1622 13.8422 5.18033 13.6787C5.20022 13.5114 5.22475 13.3818 5.24906 13.2927L5.5043 12.3685C5.63292 11.8879 5.64088 11.5526 5.52154 11.3596C5.4011 11.1613 5.13149 11.0637 4.70585 11.0637H3.55536L2.67801 14.2546H0ZM4.12464 8.97826H5.3569C5.78872 8.97826 6.1074 8.91569 6.30386 8.78629C6.50121 8.65577 6.64773 8.43531 6.73369 8.1164C6.82275 7.79211 6.80088 7.56604 6.67314 7.43754C6.54563 7.30701 6.24044 7.24355 5.76066 7.24355H4.59911L4.12464 8.97826Z" fill="#D1DAE6"/>
<path d="M16.8826 7.42552L15.0165 14.2547H12.7489L13.0276 13.2543C12.6285 13.6521 12.2201 13.9542 11.8084 14.1473C11.4 14.3438 10.969 14.4404 10.5153 14.4404C10.1403 14.4404 9.8183 14.3714 9.55907 14.2343C9.29675 14.0977 9.10139 13.8901 8.9699 13.6162C8.85322 13.3765 8.80239 13.0805 8.82228 12.7268C8.84327 12.3787 8.96438 11.7916 9.18891 10.9694L10.156 7.42552H12.6364L11.6713 10.9528C11.5303 11.4691 11.4968 11.832 11.5655 12.0295C11.6371 12.2289 11.8282 12.3319 12.1385 12.3319C12.451 12.3319 12.7138 12.217 12.9308 11.9827C13.1509 11.7503 13.3208 11.4038 13.4486 10.9427L14.4057 7.42552H16.8826Z" fill="#D1DAE6"/>
<path d="M15.9828 14.2549L18.5114 5.0002H21.9898C22.7574 5.0002 23.3514 5.04618 23.775 5.1471C24.1978 5.24376 24.5293 5.40075 24.7757 5.6221C25.0844 5.91163 25.2736 6.27001 25.3514 6.69994C25.4245 7.12986 25.3812 7.63065 25.221 8.21869C24.9377 9.25324 24.4411 10.046 23.7335 10.6C23.0236 11.1467 22.1454 11.4215 21.0972 11.4215H19.4694L18.6961 14.2549H15.9828ZM20.0858 9.16129H20.9604C21.526 9.16129 21.9235 9.09042 22.1565 8.95361C22.3819 8.81502 22.5421 8.56877 22.6398 8.21869C22.7375 7.86389 22.7123 7.61585 22.5646 7.47725C22.4225 7.33933 22.0595 7.26958 21.4785 7.26958H20.6055L20.0858 9.16129Z" fill="#D1DAE6"/>
<path d="M28.1389 14.254L28.1641 13.6054C27.7641 13.9093 27.359 14.1389 26.9517 14.2825C26.5462 14.4287 26.1144 14.5029 25.6519 14.5029C24.9493 14.5029 24.4594 14.3092 24.1761 13.9342C23.8963 13.5585 23.8503 13.0192 24.0413 12.3311C24.224 11.652 24.5491 11.1521 25.018 10.8325C25.4843 10.5091 26.2631 10.2777 27.3557 10.1297C27.4943 10.1068 27.6799 10.0884 27.9124 10.0599C28.7201 9.96507 29.1736 9.74664 29.2713 9.39027C29.3221 9.19516 29.2912 9.05118 29.1719 8.96282C29.0567 8.87109 28.8415 8.82601 28.5307 8.82601C28.2728 8.82601 28.0653 8.88028 27.8952 8.99309C27.7252 9.10702 27.5984 9.27343 27.5124 9.50756H25.0941C25.3124 8.73877 25.7586 8.15791 26.4284 7.76948C27.0958 7.37432 27.9758 7.18414 29.0658 7.18414C29.5783 7.18414 30.0373 7.23281 30.443 7.33844C30.8494 7.43958 31.1464 7.58379 31.3391 7.75827C31.5763 7.97603 31.7166 8.2243 31.7566 8.4988C31.8028 8.77264 31.7522 9.16511 31.6107 9.67868L30.5705 13.4861C30.5372 13.6108 30.5307 13.722 30.5489 13.8232C30.5705 13.9196 30.6121 14.0021 30.6854 14.0611L30.6295 14.254H28.1389ZM28.7418 11.2046C28.4784 11.312 28.1361 11.415 27.7106 11.528C27.0426 11.7099 26.6667 11.9525 26.5853 12.2528C26.529 12.4459 26.5517 12.5946 26.6448 12.7077C26.7365 12.8151 26.8958 12.8694 27.1204 12.8694C27.5321 12.8694 27.8627 12.7637 28.1091 12.5552C28.3562 12.3439 28.5409 12.0122 28.6702 11.5547C28.6927 11.4574 28.7126 11.3874 28.7254 11.3351L28.7418 11.2046Z" fill="#D1DAE6"/>
<path d="M30.6484 16.946L31.1989 14.9246H31.9087C32.1459 14.9246 32.3324 14.8771 32.4645 14.7905C32.5987 14.7006 32.69 14.549 32.7425 14.3449C32.7688 14.2549 32.785 14.1603 32.796 14.0529C32.8031 13.939 32.8031 13.8185 32.796 13.679L32.4172 7.42574H34.928L34.8891 11.5693L37.0809 7.42574H39.4157L35.5408 14.222C35.101 14.9816 34.7814 15.5035 34.5786 15.7883C34.3783 16.0695 34.1883 16.2882 34.0038 16.4362C33.7646 16.6409 33.4977 16.786 33.2095 16.8706C32.9207 16.9569 32.4809 17 31.8897 17C31.7196 17 31.5238 16.9966 31.3121 16.9854C31.1019 16.9771 30.8776 16.9643 30.6484 16.946Z" fill="#D1DAE6"/>
</svg>

<svg xmlns="http://www.w3.org/2000/svg" width="45" height="22" fill="none" viewBox="0 0 45 22"><path fill="#008c44" d="M42.461 5.882 45 10.998l-5.337 5.118z"/><path fill="#f47920" d="m40.703 5.882 2.535 5.116-5.333 5.118z"/><path fill="#d1dae6" d="M0 14.255 2.531 5h4.047c1.265 0 2.11.203 2.54.622.426.415.509 1.093.251 2.046-.155.561-.392 1.033-.717 1.405q-.484.56-1.27.885.664.162.853.646.188.483-.042 1.409l-.307 1.293-.001.035q-.135.545.082.571l-.093.343H5.136a9 9 0 0 1 .044-.576 3 3 0 0 1 .07-.386l.254-.925q.195-.72.018-1.008-.178-.297-.816-.296h-1.15l-.878 3.19zm4.125-5.277h1.232q.65.002.947-.192c.197-.13.344-.35.43-.67q.132-.486-.06-.678-.193-.195-.913-.194H4.599zm12.758-1.552-1.866 6.829h-2.268l.279-1c-.4.397-.808.7-1.22.892q-.612.294-1.293.293c-.375 0-.697-.069-.956-.206a1.32 1.32 0 0 1-.59-.618q-.176-.359-.147-.89.03-.521.367-1.757l.967-3.543h2.48l-.965 3.527c-.14.516-.174.879-.105 1.077q.107.3.572.302.469.001.793-.35.328-.347.518-1.04l.957-3.516zm-.9 6.829L18.51 5h3.479c.767 0 1.361.046 1.785.147q.633.145 1 .475c.31.29.499.648.576 1.078.073.43.03.93-.13 1.519q-.425 1.55-1.488 2.381-1.065.821-2.636.822H19.47l-.773 2.833zm4.103-5.094h.874q.848 0 1.197-.207.337-.21.483-.735.146-.533-.075-.742-.215-.207-1.087-.207h-.873zm8.053 5.093.025-.649a4.5 4.5 0 0 1-1.212.678q-.608.22-1.3.22c-.703 0-1.193-.194-1.476-.569-.28-.375-.326-.915-.135-1.603q.274-1.019.977-1.498c.466-.324 1.245-.555 2.338-.703.138-.023.324-.042.556-.07.808-.095 1.262-.313 1.36-.67.05-.195.02-.339-.1-.427q-.173-.138-.641-.137c-.258 0-.466.054-.636.167s-.297.28-.383.515h-2.418q.329-1.155 1.334-1.739c.668-.395 1.548-.585 2.638-.585q.768-.002 1.377.154c.406.102.703.246.896.42q.357.328.418.74.067.412-.146 1.18l-1.04 3.808a.8.8 0 0 0-.022.337.4.4 0 0 0 .136.238l-.055.193zm.603-3.05a9 9 0 0 1-1.031.324q-1.002.274-1.126.725c-.056.193-.033.342.06.455q.137.16.475.161.619 0 .99-.314.367-.316.56-1c.023-.098.043-.168.055-.22zm1.906 5.742.55-2.021h.71c.238 0 .424-.048.556-.135q.201-.137.279-.445.038-.133.053-.292a3 3 0 0 0 0-.374l-.379-6.253h2.511l-.039 4.143 2.192-4.143h2.335l-3.875 6.796q-.66 1.14-.962 1.566-.299.425-.575.648-.361.308-.794.435-.435.129-1.32.129c-.17 0-.366-.003-.578-.015q-.317-.011-.664-.039"/></svg>
